assets/svg/icon_video_like_off.svg

<svg width="24" height="24" viewBox="0 0 24 24" fill="none" xmlns="http://www.w3.org/2000/svg">
<path d="M14.9324 18.5038L15.4967 19.205L15.4968 19.2049L14.9324 18.5038ZM5.14888 15.0637L5.82798 14.473L5.82797 14.473L5.14888 15.0637ZM9.06761 18.5038L8.50324 19.2049L8.50326 19.2049L9.06761 18.5038ZM6.14017 4.44941L5.75951 3.63387L5.75951 3.63388L6.14017 4.44941ZM10.4234 19.4955L9.96224 20.2684L9.96224 20.2684L10.4234 19.4955ZM18.8511 15.0637L18.172 14.473L18.172 14.473L18.8511 15.0637ZM17.8598 4.44941L17.4791 5.26495L17.4791 5.26495L17.8598 4.44941ZM13.5766 19.4955L13.1155 18.7226L13.1155 18.7226L13.5766 19.4955ZM12 5.64526L11.393 6.30973C11.7367 6.62378 12.2633 6.62378 12.607 6.30973L12 5.64526ZM2.1 9.64473C2.1 12.1984 3.15138 14.1384 4.46979 15.6543L5.82797 14.473C4.70806 13.1854 3.9 11.6485 3.9 9.64473H2.1ZM4.46978 15.6543C5.73602 17.1102 7.36095 18.2854 8.50324 19.2049L9.63197 17.8028C8.38545 16.7993 6.95702 15.7712 5.82798 14.473L4.46978 15.6543ZM5.75951 3.63388C3.56658 4.65745 2.1 7.0001 2.1 9.64473H3.9C3.9 7.65229 5.00317 5.97333 6.52083 5.26495L5.75951 3.63388ZM8.50326 19.2049C8.92404 19.5436 9.43263 19.9524 9.96224 20.2684L10.8845 18.7226C10.481 18.4819 10.0689 18.1545 9.63196 17.8028L8.50326 19.2049ZM9.96224 20.2684C10.491 20.5839 11.1887 20.9 12 20.9V19.1C11.6553 19.1 11.2885 18.9637 10.8845 18.7226L9.96224 20.2684ZM15.4968 19.2049C16.639 18.2854 18.264 17.1102 19.5302 15.6543L18.172 14.473C17.043 15.7712 15.6145 16.7993 14.368 17.8028L15.4968 19.2049ZM19.5302 15.6543C20.8486 14.1384 21.9 12.1984 21.9 9.64473H20.1C20.1 11.6485 19.2919 13.1854 18.172 14.473L19.5302 15.6543ZM21.9 9.64473C21.9 7.0001 20.4334 4.65744 18.2404 3.63387L17.4791 5.26495C18.9968 5.97333 20.1 7.65229 20.1 9.64473H21.9ZM12 20.9C12.8113 20.9 13.509 20.5839 14.0378 20.2684L13.1155 18.7226C12.7115 18.9637 12.3447 19.1 12 19.1V20.9ZM14.0377 20.2684C14.5674 19.9524 15.076 19.5436 15.4967 19.205L14.3681 17.8027C13.931 18.1545 13.519 18.4819 13.1155 18.7226L14.0377 20.2684ZM18.2405 3.63388C16.1209 2.64453 13.5688 2.99304 11.393 4.9808L12.607 6.30973C14.3026 4.7607 16.0855 4.61445 17.4791 5.26495L18.2405 3.63388ZM12.607 4.9808C10.4312 2.99303 7.87911 2.64454 5.75951 3.63387L6.52083 5.26495C7.91448 4.61445 9.6974 4.7607 11.393 6.30973L12.607 4.9808Z" fill="white"/>
</svg>

<svg xmlns="http://www.w3.org/2000/svg" width="24" height="24" fill="none"><path fill="#fff" d="m14.932 18.504.565.701zm-9.783-3.44.679-.591zm3.919 3.44-.565.7zM6.14 4.449l-.38-.815zm4.283 15.047-.46.772zm8.428-4.432-.679-.591zM17.86 4.449l-.38.816zm-4.283 15.047-.461-.773zM12 5.646l-.607.664a.9.9 0 0 0 1.214 0zM2.1 9.644c0 2.553 1.051 4.493 2.37 6.01l1.358-1.182C4.708 13.185 3.9 11.648 3.9 9.645zm2.37 6.01c1.266 1.455 2.891 2.63 4.033 3.55l1.129-1.402c-1.247-1.004-2.675-2.032-3.804-3.33zM5.76 3.633C3.567 4.657 2.1 7 2.1 9.644h1.8c0-1.992 1.103-3.67 2.62-4.38zm2.743 15.57c.421.34.93.748 1.46 1.064l.922-1.545c-.404-.241-.816-.569-1.253-.92zm1.46 1.064c.528.316 1.226.632 2.037.632v-1.8c-.345 0-.711-.136-1.116-.377zm5.534-1.063c1.142-.92 2.767-2.095 4.033-3.55l-1.358-1.182c-1.129 1.298-2.558 2.326-3.804 3.33zm4.033-3.55c1.319-1.517 2.37-3.457 2.37-6.01h-1.8c0 2.004-.808 3.54-1.928 4.828zm2.37-6.01c0-2.645-1.467-4.988-3.66-6.011l-.76 1.631c1.517.708 2.62 2.387 2.62 4.38zM12 20.9c.811 0 1.509-.316 2.038-.632l-.922-1.545c-.405.24-.771.377-1.116.377zm2.038-.632c.53-.316 1.038-.724 1.459-1.063l-1.129-1.402c-.437.351-.849.679-1.252.92zM18.24 3.634c-2.12-.99-4.672-.641-6.848 1.347l1.214 1.329c1.696-1.55 3.479-1.696 4.872-1.045zM12.607 4.98C10.431 2.993 7.879 2.645 5.76 3.634l.76 1.631c1.394-.65 3.177-.504 4.873 1.045z"/></svg>
